ES2T1/53/aimg/i5-dialogo1.svg

<svg clip-rule="evenodd" fill-rule="evenodd" stroke-miterlimit="10" viewBox="0 0 122 48" xmlns="http://www.w3.org/2000/svg"><g transform="translate(-11 -4)"><path d="m114.562 11.557h-84.879c-5.811 0-10.565 4.754-10.565 10.565s4.754 10.565 10.565 10.565h28.113c2.125 4.554 5.333 8.602 9.317 11.666-1.322-3.722-1.802-7.732-1.445-11.666h48.894c5.812 0 10.565-4.754 10.565-10.565s-4.753-10.565-10.565-10.565z" fill="#fff" fill-rule="nonzero" stroke="#231f20" stroke-width="1.44"/><g fill="#231f20"><path d="m25.003 21.013h1.039v-1.251h-1.039zm0 5.871h1.039v-5.11h-1.039z" fill-rule="nonzero"/><path d="m27.611 17.875v7.123h1.136v-2.608h1.001c.982 0 1.463-.154 1.944-.53.443-.356.741-1.068.741-1.752 0-.683-.288-1.366-.789-1.751-.423-.337-.895-.482-2.002-.482zm1.136 1.001h.943c.472 0 .818.039 1.136.231.298.174.52.539.52 1.021 0 .481-.222.856-.51 1.02-.308.192-.655.241-1.107.241h-.982z" fill-rule="nonzero"/><path d="m32.905 22.38c0 1.405 1.03 2.762 2.791 2.762 1.762 0 2.792-1.357 2.792-2.762s-1.03-2.772-2.792-2.772c-1.761 0-2.791 1.367-2.791 2.762zm1.001 0c0-1.049.789-1.829 1.79-1.829s1.791.78 1.791 1.829-.79 1.829-1.791 1.829-1.79-.78-1.79-1.819z" fill-rule="nonzero"/><path d="m39.508 24.998h1.001v-2.83c0-1.039.491-1.559 1.434-1.559h.067v-1.001c-.712.01-1.261.308-1.559.924v-.77h-.943z" fill-rule="nonzero"/><path d="m48.161 20.542v4.456h1.001v-5.236h-2.474v-.308c0-.914.626-.914.963-.924v-.789c-.742.009-1.964.086-1.964 1.665v.356h-.712v.78h.712v4.456h1.001v-4.456zm1.001-1.608v-1.059h-1.001v1.059z" fill-rule="nonzero"/><path d="m50.36 24.998h1.001v-2.916c0-.905.452-1.521 1.434-1.531 1.02-.009 1.386.664 1.386 1.608v2.839h1.011v-3.07c0-1.088-.443-2.301-2.118-2.32-.933-.01-1.521.423-1.771.962v-.808h-.943z" fill-rule="nonzero"/><path d="m59.321 17.875h1.001v7.122h-1.001z"/><path d="m61.332 22.38c0 1.405 1.03 2.762 2.792 2.762 1.761 0 2.791-1.357 2.791-2.762s-1.03-2.772-2.791-2.772c-1.762 0-2.792 1.367-2.792 2.762zm1.001 0c0-1.049.79-1.829 1.791-1.829s1.79.78 1.79 1.829-.789 1.829-1.79 1.829-1.791-.78-1.791-1.819z" fill-rule="nonzero"/><path d="m71.237 21.129c-.077-1.165-1.021-1.521-1.743-1.521-.952 0-1.761.597-1.761 1.588.01.789.587 1.136 1.319 1.357.933.308 1.328.481 1.338 1.001 0 .443-.376.78-.857.78-.375 0-.886-.212-.924-.847h-.991c.048 1.193 1.078 1.665 1.905 1.665 1.04 0 1.887-.693 1.868-1.713-.029-1.126-.905-1.357-1.704-1.579-.558-.154-.934-.346-.953-.76-.01-.347.26-.674.751-.674.51-.01.76.298.76.703z" fill-rule="nonzero"/><path d="m80.38 22.698c.087-.876-.173-1.694-.789-2.32-.5-.491-1.184-.77-1.935-.77-1.588 0-2.762 1.28-2.762 2.782 0 1.386 1.059 2.762 2.772 2.762.529 0 1.049-.144 1.492-.443.443-.289.808-.722 1.059-1.299h-1.04c-.289.548-.808.885-1.511.885-.789 0-1.713-.539-1.761-1.597zm-4.456-.78c.048-.712.712-1.453 1.732-1.453.992-.02 1.685.76 1.733 1.453z" fill-rule="nonzero"/><path d="m81.362 24.998h1.001v-2.916c0-.905.452-1.521 1.434-1.531 1.02-.009 1.386.664 1.386 1.608v2.839h1.011v-3.07c0-1.088-.443-2.301-2.118-2.32-.933-.01-1.52.423-1.771.962v-.808h-.943z" fill-rule="nonzero"/><path d="m91.613 23.16c-.212.519-.761 1.049-1.637 1.058-1.001 0-1.79-.76-1.79-1.838 0-.529.202-1.02.51-1.328.366-.347.751-.52 1.28-.51.713 0 1.367.394 1.637 1.097h1.03c-.328-1.261-1.454-2.031-2.705-2.031-1.569 0-2.753 1.222-2.753 2.772 0 1.453 1.088 2.772 2.801 2.772 1.309 0 2.339-.857 2.657-1.992z" fill-rule="nonzero"/><path d="m93.316 22.38c0 1.405 1.03 2.762 2.792 2.762 1.761 0 2.791-1.357 2.791-2.762s-1.03-2.772-2.791-2.772c-1.762 0-2.792 1.367-2.792 2.762zm1.001 0c0-1.049.79-1.829 1.791-1.829s1.79.78 1.79 1.829-.789 1.829-1.79 1.829-1.791-.78-1.791-1.819z" fill-rule="nonzero"/><path d="m99.919 24.998h1.001v-2.916c0-.905.452-1.521 1.434-1.531 1.02-.009 1.386.664 1.386 1.608v2.839h1.011v-3.07c0-1.088-.443-2.301-2.118-2.32-.933-.01-1.52.423-1.771.962v-.808h-.943z" fill-rule="nonzero"/><path d="m106.416 24.998h1.001v-4.456h1.011v-.78h-1.011v-1.887h-1.001v1.887h-.943v.78h.943z" fill-rule="nonzero"/><path d="m109.178 24.998h1.001v-2.83c0-1.039.491-1.559 1.434-1.559h.068v-1.001c-.712.01-1.261.308-1.559.924v-.77h-.944z" fill-rule="nonzero"/><path d="m117.167 22.698c.087-.876-.173-1.694-.789-2.32-.501-.491-1.184-.77-1.935-.77-1.588 0-2.762 1.28-2.762 2.782 0 1.386 1.059 2.762 2.772 2.762.529 0 1.049-.144 1.492-.443.442-.289.808-.722 1.058-1.299h-1.039c-.289.548-.809.885-1.511.885-.789 0-1.713-.539-1.762-1.597zm-4.456-.78c.048-.712.712-1.453 1.732-1.453.992-.02 1.685.76 1.733 1.453zm.539-3.378.298.616 2.339-1.175-.347-.731z" fill-rule="nonzero"/><path d="m119.458 17.875h-1.04v5.111h1.04zm0 5.872h-1.04v1.251h1.04z" fill-rule="nonzero"/></g></g></svg>

<?xml version="1.0" encoding="UTF-8" standalone="no"?>
<!DOCTYPE svg PUBLIC "-//W3C//DTD SVG 1.1//EN" "http://www.w3.org/Graphics/SVG/1.1/DTD/svg11.dtd">
<svg width="100%" height="100%" viewBox="0 0 122 48" version="1.1" xmlns="http://www.w3.org/2000/svg" xmlns:xlink="http://www.w3.org/1999/xlink" xml:space="preserve" xmlns:serif="http://www.serif.com/" style="fill-rule:evenodd;clip-rule:evenodd;stroke-miterlimit:10;">
    <g transform="matrix(1,0,0,1,-11,-4)">
        <g id="dialogo">
            <path d="M114.562,11.557L29.683,11.557C23.872,11.557 19.118,16.311 19.118,22.122C19.118,27.933 23.872,32.687 29.683,32.687L57.796,32.687C59.921,37.241 63.129,41.289 67.113,44.353C65.791,40.631 65.311,36.621 65.668,32.687L114.562,32.687C120.374,32.687 125.127,27.933 125.127,22.122C125.127,16.311 120.374,11.557 114.562,11.557Z" style="fill:white;fill-rule:nonzero;stroke:rgb(35,31,32);stroke-width:1.44px;"/>
            <g>
                <path d="M25.003,21.013L26.042,21.013L26.042,19.762L25.003,19.762L25.003,21.013ZM25.003,26.884L26.042,26.884L26.042,21.774L25.003,21.774L25.003,26.884Z" style="fill:rgb(35,31,32);fill-rule:nonzero;"/>
                <path d="M27.611,17.875L27.611,24.998L28.747,24.998L28.747,22.39L29.748,22.39C30.73,22.39 31.211,22.236 31.692,21.86C32.135,21.504 32.433,20.792 32.433,20.108C32.433,19.425 32.145,18.742 31.644,18.357C31.221,18.02 30.749,17.875 29.642,17.875L27.611,17.875ZM28.747,18.876L29.69,18.876C30.162,18.876 30.508,18.915 30.826,19.107C31.124,19.281 31.346,19.646 31.346,20.128C31.346,20.609 31.124,20.984 30.836,21.148C30.528,21.34 30.181,21.389 29.729,21.389L28.747,21.389L28.747,18.876Z" style="fill:rgb(35,31,32);fill-rule:nonzero;"/>
                <path d="M32.905,22.38C32.905,23.785 33.935,25.142 35.696,25.142C37.458,25.142 38.488,23.785 38.488,22.38C38.488,20.975 37.458,19.608 35.696,19.608C33.935,19.608 32.905,20.975 32.905,22.37L32.905,22.38ZM33.906,22.38C33.906,21.331 34.695,20.551 35.696,20.551C36.697,20.551 37.487,21.331 37.487,22.38C37.487,23.429 36.697,24.209 35.696,24.209C34.695,24.209 33.906,23.429 33.906,22.39L33.906,22.38Z" style="fill:rgb(35,31,32);fill-rule:nonzero;"/>
                <path d="M39.508,24.998L40.509,24.998L40.509,22.168C40.509,21.129 41,20.609 41.943,20.609L42.01,20.609L42.01,19.608C41.298,19.618 40.749,19.916 40.451,20.532L40.451,19.762L39.508,19.762L39.508,24.998Z" style="fill:rgb(35,31,32);fill-rule:nonzero;"/>
                <path d="M48.161,20.542L48.161,24.998L49.162,24.998L49.162,19.762L46.688,19.762L46.688,19.454C46.688,18.54 47.314,18.54 47.651,18.53L47.651,17.741C46.909,17.75 45.687,17.827 45.687,19.406L45.687,19.762L44.975,19.762L44.975,20.542L45.687,20.542L45.687,24.998L46.688,24.998L46.688,20.542L48.161,20.542ZM49.162,18.934L49.162,17.875L48.161,17.875L48.161,18.934L49.162,18.934Z" style="fill:rgb(35,31,32);fill-rule:nonzero;"/>
                <path d="M50.36,24.998L51.361,24.998L51.361,22.082C51.361,21.177 51.813,20.561 52.795,20.551C53.815,20.542 54.181,21.215 54.181,22.159L54.181,24.998L55.192,24.998L55.192,21.928C55.192,20.84 54.749,19.627 53.074,19.608C52.141,19.598 51.553,20.031 51.303,20.57L51.303,19.762L50.36,19.762L50.36,24.998Z" style="fill:rgb(35,31,32);fill-rule:nonzero;"/>
                <rect x="59.321" y="17.875" width="1.001" height="7.122" style="fill:rgb(35,31,32);"/>
                <path d="M61.332,22.38C61.332,23.785 62.362,25.142 64.124,25.142C65.885,25.142 66.915,23.785 66.915,22.38C66.915,20.975 65.885,19.608 64.124,19.608C62.362,19.608 61.332,20.975 61.332,22.37L61.332,22.38ZM62.333,22.38C62.333,21.331 63.123,20.551 64.124,20.551C65.125,20.551 65.914,21.331 65.914,22.38C65.914,23.429 65.125,24.209 64.124,24.209C63.123,24.209 62.333,23.429 62.333,22.39L62.333,22.38Z" style="fill:rgb(35,31,32);fill-rule:nonzero;"/>
                <path d="M71.237,21.129C71.16,19.964 70.216,19.608 69.494,19.608C68.542,19.608 67.733,20.205 67.733,21.196C67.743,21.985 68.32,22.332 69.052,22.553C69.985,22.861 70.38,23.034 70.39,23.554C70.39,23.997 70.014,24.334 69.533,24.334C69.158,24.334 68.647,24.122 68.609,23.487L67.618,23.487C67.666,24.68 68.696,25.152 69.523,25.152C70.563,25.152 71.41,24.459 71.391,23.439C71.362,22.313 70.486,22.082 69.687,21.86C69.129,21.706 68.753,21.514 68.734,21.1C68.724,20.753 68.994,20.426 69.485,20.426C69.995,20.416 70.245,20.724 70.245,21.129L71.237,21.129Z" style="fill:rgb(35,31,32);fill-rule:nonzero;"/>
                <path d="M80.38,22.698C80.467,21.822 80.207,21.004 79.591,20.378C79.091,19.887 78.407,19.608 77.656,19.608C76.068,19.608 74.894,20.888 74.894,22.39C74.894,23.776 75.953,25.152 77.666,25.152C78.195,25.152 78.715,25.008 79.158,24.709C79.601,24.42 79.966,23.987 80.217,23.41L79.177,23.41C78.888,23.958 78.369,24.295 77.666,24.295C76.877,24.295 75.953,23.756 75.905,22.698L80.38,22.698ZM75.924,21.918C75.972,21.206 76.636,20.465 77.656,20.465C78.648,20.445 79.341,21.225 79.389,21.918L75.924,21.918Z" style="fill:rgb(35,31,32);fill-rule:nonzero;"/>
                <path d="M81.362,24.998L82.363,24.998L82.363,22.082C82.363,21.177 82.815,20.561 83.797,20.551C84.817,20.542 85.183,21.215 85.183,22.159L85.183,24.998L86.194,24.998L86.194,21.928C86.194,20.84 85.751,19.627 84.076,19.608C83.143,19.598 82.556,20.031 82.305,20.57L82.305,19.762L81.362,19.762L81.362,24.998Z" style="fill:rgb(35,31,32);fill-rule:nonzero;"/>
                <path d="M91.613,23.16C91.401,23.679 90.852,24.209 89.976,24.218C88.975,24.218 88.186,23.458 88.186,22.38C88.186,21.851 88.388,21.36 88.696,21.052C89.062,20.705 89.447,20.532 89.976,20.542C90.689,20.542 91.343,20.936 91.613,21.639L92.643,21.639C92.315,20.378 91.189,19.608 89.938,19.608C88.369,19.608 87.185,20.83 87.185,22.38C87.185,23.833 88.273,25.152 89.986,25.152C91.295,25.152 92.325,24.295 92.643,23.16L91.613,23.16Z" style="fill:rgb(35,31,32);fill-rule:nonzero;"/>
                <path d="M93.316,22.38C93.316,23.785 94.346,25.142 96.108,25.142C97.869,25.142 98.899,23.785 98.899,22.38C98.899,20.975 97.869,19.608 96.108,19.608C94.346,19.608 93.316,20.975 93.316,22.37L93.316,22.38ZM94.317,22.38C94.317,21.331 95.107,20.551 96.108,20.551C97.109,20.551 97.898,21.331 97.898,22.38C97.898,23.429 97.109,24.209 96.108,24.209C95.107,24.209 94.317,23.429 94.317,22.39L94.317,22.38Z" style="fill:rgb(35,31,32);fill-rule:nonzero;"/>
                <path d="M99.919,24.998L100.92,24.998L100.92,22.082C100.92,21.177 101.372,20.561 102.354,20.551C103.374,20.542 103.74,21.215 103.74,22.159L103.74,24.998L104.751,24.998L104.751,21.928C104.751,20.84 104.308,19.627 102.633,19.608C101.7,19.598 101.113,20.031 100.862,20.57L100.862,19.762L99.919,19.762L99.919,24.998Z" style="fill:rgb(35,31,32);fill-rule:nonzero;"/>
                <path d="M106.416,24.998L107.417,24.998L107.417,20.542L108.428,20.542L108.428,19.762L107.417,19.762L107.417,17.875L106.416,17.875L106.416,19.762L105.473,19.762L105.473,20.542L106.416,20.542L106.416,24.998Z" style="fill:rgb(35,31,32);fill-rule:nonzero;"/>
                <path d="M109.178,24.998L110.179,24.998L110.179,22.168C110.179,21.129 110.67,20.609 111.613,20.609L111.681,20.609L111.681,19.608C110.969,19.618 110.42,19.916 110.122,20.532L110.122,19.762L109.178,19.762L109.178,24.998Z" style="fill:rgb(35,31,32);fill-rule:nonzero;"/>
                <path d="M117.167,22.698C117.254,21.822 116.994,21.004 116.378,20.378C115.877,19.887 115.194,19.608 114.443,19.608C112.855,19.608 111.681,20.888 111.681,22.39C111.681,23.776 112.74,25.152 114.453,25.152C114.982,25.152 115.502,25.008 115.945,24.709C116.387,24.42 116.753,23.987 117.003,23.41L115.964,23.41C115.675,23.958 115.155,24.295 114.453,24.295C113.664,24.295 112.74,23.756 112.691,22.698L117.167,22.698ZM112.711,21.918C112.759,21.206 113.423,20.465 114.443,20.465C115.435,20.445 116.128,21.225 116.176,21.918L112.711,21.918ZM113.25,18.54L113.548,19.156L115.887,17.981L115.54,17.25L113.25,18.54Z" style="fill:rgb(35,31,32);fill-rule:nonzero;"/>
                <path d="M119.458,17.875L118.418,17.875L118.418,22.986L119.458,22.986L119.458,17.875ZM119.458,23.747L118.418,23.747L118.418,24.998L119.458,24.998L119.458,23.747Z" style="fill:rgb(35,31,32);fill-rule:nonzero;"/>
            </g>
        </g>
    </g>
</svg>
